img/icons/social/WhatsApp_footer1.svg

<svg width="31" height="31" viewBox="0 0 31 31" fill="none" xmlns="http://www.w3.org/2000/svg">
<g clip-path="url(#clip0_63806_2)">
<path d="M9.28043 26.6875L9.44001 26.7751C11.4261 27.8646 13.7091 28.4856 16.1405 28.4856C23.7986 28.4856 30 22.3294 30 14.7428C30 7.15619 23.7983 1 16.1409 1C8.48246 1 2.28091 7.15621 2.28091 14.7428C2.28091 17.3388 3.00727 19.7665 4.2683 21.8371L4.3717 22.0069L4.30785 22.1952L2 29L9.10682 26.7426L9.28043 26.6875Z" stroke="black" stroke-width="2"/>
<path d="M14.0491 11.2533C14.1644 11.4825 14.2862 11.8447 14.0784 12.2563C14.0634 12.2863 14.0489 12.3159 14.0344 12.3455L14.0343 12.3457C13.9443 12.5295 13.8553 12.7109 13.6656 12.9304C13.6222 12.9806 13.5717 13.0414 13.5178 13.1062L13.5095 13.1163L13.5084 13.1177C13.3791 13.2733 13.2311 13.4515 13.1107 13.5705C13.065 13.6157 13.0357 13.6455 13.0135 13.6728C12.9899 13.6982 12.9921 13.718 13.0236 13.7627C13.2225 14.1019 13.9069 15.2057 14.9093 16.0919C15.9843 17.0422 16.8974 17.4364 17.4046 17.6554L17.4089 17.6572C17.5124 17.702 17.599 17.7393 17.6662 17.7728C17.7935 17.836 17.8599 17.841 17.8599 17.841L17.8607 17.8405C17.8607 17.8405 17.8881 17.8214 17.9201 17.7851C18.1322 17.5451 18.7909 16.7764 19.0078 16.4529C19.1728 16.2067 19.3911 16.034 19.6827 16.0012C19.9255 15.9739 20.1573 16.0573 20.3068 16.1112L20.3092 16.112C20.4975 16.1798 21.0405 16.4348 21.549 16.6781C22.0713 16.9282 22.598 17.1858 22.7771 17.2744C22.8276 17.2995 22.881 17.3252 22.9343 17.3507L22.9477 17.3572L22.9543 17.3604C23.055 17.4088 23.154 17.4563 23.2305 17.4981C23.3529 17.5647 23.5245 17.6687 23.6326 17.8462L23.6339 17.8485C23.712 17.9785 23.7323 18.1396 23.7404 18.2441C23.7504 18.3724 23.7484 18.5241 23.734 18.6903C23.705 19.0235 23.6231 19.4419 23.463 19.8878C23.2647 20.4373 22.7252 20.9053 22.2264 21.2251C21.7217 21.5486 21.1286 21.8027 20.7041 21.841C20.6226 21.8483 20.5735 21.8603 20.5003 21.8782L20.4994 21.8785C20.4535 21.8896 20.3982 21.903 20.3197 21.9191C20.1335 21.9572 19.9168 21.9808 19.6049 21.9507C19.0085 21.8933 18.059 21.6386 16.2542 20.9342C14.3683 20.1976 12.8468 18.8789 11.7832 17.7334C11.2492 17.1584 10.8255 16.6215 10.5239 16.2134C10.3731 16.0092 10.2527 15.8372 10.1646 15.709C10.13 15.6586 10.1001 15.6147 10.0759 15.5792L10.0578 15.5526C10.0442 15.5327 10.0335 15.5171 10.0251 15.5049C10.0159 15.4917 10.0126 15.4872 10.0126 15.4872L10.012 15.4863C9.91607 15.3599 9.53804 14.8613 9.18266 14.1675C8.82892 13.4767 8.47827 12.5556 8.47827 11.5933C8.47827 9.80318 9.38149 8.84778 9.76331 8.44381L9.76339 8.44372C9.78888 8.41677 9.8123 8.39197 9.8328 8.36984C10.2535 7.91476 10.7607 7.79199 11.0945 7.79199C11.2285 7.79199 11.3598 7.80033 11.473 7.8076L11.4763 7.8078C11.5933 7.81533 11.6881 7.82142 11.774 7.82142C11.7832 7.82142 11.7953 7.82075 11.8281 7.81865L11.8289 7.81858C11.8567 7.8168 11.8988 7.81411 11.9445 7.81411C12.0416 7.81413 12.17 7.82582 12.3095 7.8857C12.595 8.00829 12.8022 8.27577 12.9684 8.67151C13.0633 8.89772 13.2009 9.22994 13.3467 9.58179C13.4283 9.77855 13.5124 9.98143 13.5929 10.1753C13.7056 10.4463 13.8113 10.6999 13.8944 10.8964C13.9359 10.9949 13.9714 11.078 13.999 11.1415C14.0128 11.1733 14.0243 11.1993 14.0333 11.2193L14.0443 11.2433L14.0477 11.2504L14.0491 11.2533Z" stroke="black" stroke-width="2"/>
</g>
<defs>
<clipPath id="clip0_63806_2">
<rect width="31" height="31" fill="white"/>
</clipPath>
</defs>
</svg>

<svg width="31" height="31" fill="none" xmlns="http://www.w3.org/2000/svg"><g clip-path="url(#clip0_63806_2)" stroke="#000" stroke-width="2"><path d="M9.28 26.688l.16.087a13.888 13.888 0 006.7 1.71C23.8 28.486 30 22.33 30 14.744 30 7.156 23.798 1 16.14 1 8.483 1 2.28 7.156 2.28 14.743c0 2.596.727 5.024 1.988 7.094l.104.17-.064.188L2 29l7.107-2.257.173-.055z"/><path d="M14.05 11.253c.114.23.236.592.028 1.003l-.044.09h0c-.09.184-.179.365-.368.584-.044.05-.094.111-.148.176l-.009.01v.002c-.13.155-.278.333-.398.452a1.377 1.377 0 00-.098.103c-.023.025-.02.045.01.09.2.339.884 1.443 1.886 2.329a8.695 8.695 0 002.496 1.563l.004.002c.103.045.19.082.257.116a.601.601 0 00.194.068h0s.028-.02.06-.056c.212-.24.87-1.009 1.088-1.332.165-.246.383-.419.675-.452.242-.027.474.056.624.11l.002.001c.188.068.732.323 1.24.566a128.54 128.54 0 011.385.673l.014.006.006.003c.101.049.2.096.276.138.123.067.294.17.403.348v.003c.079.13.1.29.107.395.01.128.008.28-.006.446-.029.333-.11.752-.271 1.198-.198.55-.738 1.017-1.237 1.337-.504.324-1.097.578-1.522.616-.081.007-.13.02-.204.037h0a3.746 3.746 0 01-.18.041 2.292 2.292 0 01-.715.032c-.596-.058-1.546-.312-3.35-1.017-1.887-.736-3.408-2.055-4.472-3.2a17.734 17.734 0 01-1.618-2.025l-.09-.13-.017-.026a16.944 16.944 0 00-.045-.066h-.001a8.964 8.964 0 01-.83-1.32c-.353-.69-.704-1.611-.704-2.574 0-1.79.903-2.745 1.285-3.15h0l.07-.073c.42-.455.928-.578 1.261-.578.135 0 .266.008.379.016h.003c.117.007.212.013.298.013l.054-.002h0c.029-.002.07-.005.117-.005.097 0 .225.012.364.072.286.122.493.39.66.786l.378.91.246.593a141.618 141.618 0 00.44 1.044l.011.024.004.007.001.003z"/></g><defs><clipPath id="clip0_63806_2"><path fill="#fff" d="M0 0h31v31H0z"/></clipPath></defs></svg>
